X: 2
T:Old Woman Tossed Up, Kirtlington
M:6/8
L:1/8
Q:1/4=100
A:Kirtlington
P:A(AB)4A
K:G
P:A
|:D|G2G G>Bd |e>ed B>BG|ccc  A<dc|BGG G2:||
P:B
d|e>fg e>fg|e>fg gfe |d2d  d>dd|edc BAG|
G>GG GBd |edc  BAG |c>cc A<dc|BGG G2||
